icon-themes/breeze_svg/cmd/lc_loadbasic.svg

<svg viewBox="0 0 24 24" xmlns="http://www.w3.org/2000/svg"><path d="m5 4v16h5v-1h-4v-14h12v11h-5.09375l2.21875-2.28125-.71875-.71875-3.1875 3.28125-.21875.21875.21875.21875 3.1875 3.28125.71875-.71875-2.21875-2.28125h6.09375v-13z" fill="#4d4d4d"/></svg>

<svg xmlns="http://www.w3.org/2000/svg" viewBox="0 0 24 24">
 <path 
     style="fill:#4d4d4d" 
     d="M 5 4 L 5 20 L 10 20 L 10 19 L 6 19 L 6 5 L 18 5 L 18 16 L 12.90625 16 L 15.125 13.71875 L 14.40625 13 L 11.21875 16.28125 L 11 16.5 L 11.21875 16.71875 L 14.40625 20 L 15.125 19.28125 L 12.90625 17 L 19 17 L 19 4 L 5 4 z "
     />
 </svg>
